src/assets/svg/3-login-share-newsletter/5-detail-newsletter.svg

<svg width="135" height="132" viewBox="0 0 135 132" fill="none" xmlns="http://www.w3.org/2000/svg">
<g clip-path="url(#clip0_160_361)">
<path d="M49.4469 53.5663L58.3676 31.0681L82.3124 27.5444L97.3354 46.5191L88.4155 69.0172L64.4706 72.5409L49.4469 53.5663Z" fill="#E9E8E8" fill-opacity="0.8"/>
</g>
<g clip-path="url(#clip1_160_361)">
<path d="M18.9673 77.9352L27.8879 55.437L51.8328 51.9133L66.8557 70.888L57.9359 93.3861L33.991 96.9098L18.9673 77.9352Z" fill="#E9E8E8" fill-opacity="0.8"/>
</g>
<g clip-path="url(#clip2_160_361)">
<path d="M54.968 92.1992L63.8887 69.701L87.8335 66.1773L102.856 85.1521L93.9366 107.65L69.9918 111.174L54.968 92.1992Z" fill="#E9E8E8" fill-opacity="0.8"/>
</g>
<defs>
<clipPath id="clip0_160_361">
<rect width="48.4042" height="48.4042" fill="white" transform="translate(45.9233 29.6223) rotate(-8.37148)"/>
</clipPath>
<clipPath id="clip1_160_361">
<rect width="48.4042" height="48.4042" fill="white" transform="translate(15.4437 53.9911) rotate(-8.37148)"/>
</clipPath>
<clipPath id="clip2_160_361">
<rect width="48.4042" height="48.4042" fill="white" transform="translate(51.4445 68.2552) rotate(-8.37148)"/>
</clipPath>
</defs>
</svg>

<svg width="135" height="132" fill="none" xmlns="http://www.w3.org/2000/svg"><g clip-path="url(#a)"><path d="m49.447 53.566 8.92-22.498 23.945-3.524L97.335 46.52l-8.92 22.498-23.944 3.524-15.024-18.975Z" fill="#E9E8E8" fill-opacity=".8"/></g><g clip-path="url(#b)"><path d="m18.967 77.935 8.92-22.498 23.946-3.524 15.023 18.975-8.92 22.498L33.99 96.91 18.967 77.935Z" fill="#E9E8E8" fill-opacity=".8"/></g><g clip-path="url(#c)"><path d="m54.968 92.2 8.92-22.499 23.946-3.524 15.022 18.975-8.92 22.498-23.944 3.524-15.024-18.975Z" fill="#E9E8E8" fill-opacity=".8"/></g><defs><clipPath id="a"><path fill="#fff" transform="rotate(-8.371 225.34 -298.936)" d="M0 0h48.404v48.404H0z"/></clipPath><clipPath id="b"><path fill="#fff" transform="rotate(-8.371 376.588 -78.516)" d="M0 0h48.404v48.404H0z"/></clipPath><clipPath id="c"><path fill="#fff" transform="rotate(-8.371 492.04 -317.34)" d="M0 0h48.404v48.404H0z"/></clipPath></defs></svg>
